apex/img/level-icon.svg

<svg width="24" height="24" viewBox="0 0 24 24" fill="none" xmlns="http://www.w3.org/2000/svg">
<path d="M6.26294 10.5436C6.2981 10.4822 6.33984 10.4222 6.38763 10.363L6.39148 10.3575L6.41345 10.3317L10.7503 5.27197H8.23462C8.04803 5.27197 7.86896 5.34613 7.73712 5.47778L2.67133 10.5436H6.26294Z" fill="white"/>
<path d="M15.9159 10.5436L12 5.9751L8.08447 10.5436H15.9159Z" fill="white"/>
<path d="M17.6169 10.3693C17.6629 10.4264 17.7028 10.4846 17.7371 10.5436H21.3287L16.2629 5.47778C16.131 5.34613 15.952 5.27197 15.7654 5.27197H13.2497L17.5908 10.3369L17.6169 10.3693Z" fill="white"/>
<path d="M2.65448 11.9498L9.85913 19.7545L6.2569 11.9498H2.65448Z" fill="white"/>
<path d="M7.80615 11.9498L12 21.0375L16.1944 11.9498H7.80615Z" fill="white"/>
<path d="M17.7431 11.9498L14.1409 19.7545L21.3455 11.9498H17.7431Z" fill="white"/>
<path d="M17.0643 4.38721C18.2574 4.79004 19.2078 5.73981 19.6117 6.93237C19.6992 7.22095 19.9673 7.43079 20.2846 7.43079C20.6005 7.43079 20.8678 7.22241 20.9564 6.93567C21.3593 5.74255 22.3088 4.79224 23.5016 4.38831C23.79 4.30078 24 4.03271 24 3.71539C24 3.39954 23.7914 3.1322 23.5047 3.04358C22.3116 2.64075 21.3615 1.69135 20.9575 0.498596C20.87 0.210022 20.6019 0 20.2846 0C19.9686 0 19.7014 0.208557 19.6126 0.4953C19.2098 1.68842 18.2602 2.63873 17.0676 3.04248C16.7791 3.13 16.569 3.39825 16.569 3.71539C16.5692 4.03143 16.7776 4.29858 17.0643 4.38721Z" fill="white"/>
<path d="M23.5192 20.3705C22.6668 20.0865 21.9886 19.4081 21.7046 18.5559C21.6088 18.2688 21.3402 18.0751 21.0375 18.0751C20.7349 18.0751 20.4661 18.2688 20.3705 18.5559C20.0865 19.4081 19.4081 20.0865 18.5559 20.3705C18.2688 20.4661 18.0751 20.7349 18.0751 21.0375C18.0751 21.3402 18.2688 21.6088 18.5559 21.7046C19.4081 21.9886 20.0865 22.667 20.3705 23.5192C20.4661 23.8063 20.7349 24 21.0375 24C21.3402 24 21.6088 23.8063 21.7046 23.5192C21.9886 22.6668 22.667 21.9886 23.5192 21.7046C23.8063 21.6088 24 21.3402 24 21.0375C24 20.7349 23.8063 20.4661 23.5192 20.3705Z" fill="white"/>
<path d="M0.480835 3.62952C1.33301 3.91351 2.01141 4.59192 2.29541 5.44409C2.39117 5.73138 2.65979 5.92493 2.96246 5.92493C3.26514 5.92493 3.53394 5.73138 3.62952 5.44409C3.91351 4.59192 4.59192 3.91351 5.44409 3.62952C5.7312 3.53394 5.92493 3.26514 5.92493 2.96246C5.92493 2.65979 5.73138 2.39117 5.44409 2.29541C4.59192 2.01141 3.91351 1.33301 3.62952 0.480835C3.53394 0.193726 3.26514 0 2.96246 0C2.65979 0 2.39117 0.193726 2.29541 0.480835C2.01141 1.33301 1.33319 2.01141 0.480835 2.29541C0.193726 2.39117 0 2.65979 0 2.96246C0 3.26514 0.193726 3.53394 0.480835 3.62952Z" fill="white"/>
<path d="M6.93567 19.6126C5.74255 19.21 4.79224 18.2604 4.38849 17.0678C4.30096 16.7791 4.03271 16.569 3.71539 16.569C3.39954 16.569 3.13239 16.7776 3.04358 17.0643C2.64075 18.2574 1.69116 19.2078 0.498596 19.6117C0.210022 19.6992 0 19.9673 0 20.2846C0 20.6005 0.208374 20.8678 0.4953 20.9564C1.68842 21.3593 2.63873 22.3088 3.04248 23.5014C3.13 23.79 3.39825 24 3.71539 24C4.03143 24 4.29858 23.7914 4.38739 23.5047C4.79004 22.3116 5.73981 21.3615 6.93237 20.9575C7.22095 20.87 7.43079 20.6017 7.43079 20.2846C7.43079 19.9686 7.22241 19.7014 6.93567 19.6126Z" fill="white"/>
</svg>

<svg width="24" height="24" fill="none" xmlns="http://www.w3.org/2000/svg"><path d="M6.263 10.544a1.38 1.38 0 01.125-.181l.003-.005.022-.026 4.337-5.06H8.235a.704.704 0 00-.498.206l-5.066 5.066h3.592zm9.653 0L12 5.975l-3.916 4.569h7.832zm1.701-.174c.046.056.086.115.12.174h3.592l-5.066-5.066a.704.704 0 00-.498-.206H13.25l4.34 5.065.027.032zM2.654 11.95l7.205 7.805-3.602-7.805H2.654zm5.152 0L12 21.038l4.194-9.088H7.806zm9.937 0l-3.602 7.805 7.205-7.805h-3.603zm-.679-7.563a4.08 4.08 0 012.548 2.545.703.703 0 001.344.004 4.08 4.08 0 012.546-2.548.703.703 0 00.003-1.344A4.08 4.08 0 0120.958.499a.703.703 0 00-1.345-.004 4.08 4.08 0 01-2.545 2.547.703.703 0 00-.004 1.345zM23.52 20.37a2.882 2.882 0 01-1.815-1.814.703.703 0 00-1.334 0 2.883 2.883 0 01-1.815 1.814.703.703 0 000 1.335c.852.284 1.53.962 1.814 1.814a.703.703 0 001.335 0 2.882 2.882 0 011.814-1.814.703.703 0 000-1.334zM.48 3.63a2.88 2.88 0 011.815 1.814.703.703 0 001.335 0A2.883 2.883 0 015.444 3.63a.703.703 0 000-1.335A2.883 2.883 0 013.63.481a.703.703 0 00-1.335 0A2.882 2.882 0 01.481 2.295a.703.703 0 000 1.335zm6.456 15.983a4.079 4.079 0 01-2.548-2.545.704.704 0 00-1.344-.004 4.08 4.08 0 01-2.545 2.548.703.703 0 00-.004 1.344 4.08 4.08 0 012.547 2.545.703.703 0 001.345.004 4.08 4.08 0 012.545-2.547.703.703 0 00.004-1.345z" fill="#fff"/></svg>
